!!!OTL: Kurze Passion Christi
!!!ARE: Europa, Mitteleuropa, Deutschland
!!!SCT: A0548
!!!YEM: Copyright 1995, estate of Helmut Schaffrath.
**kern
*ICvox
*Ivox
*M4/1
*k[b-]
*d:
{2a
=1
1b-
1g
1b-
1ccn
=2
0dd
1.dd}
{2dd
=3
1ccn
1a
1b-
1g
=4
0a
1.r}
{2g
=5
1a
1dd
1ccn
1ccn
=6
1g
1g
1fn}
{1b-
=7
1a
2g
2fn
1g
2fn
2e
=8
0d}
{0g
=9
2fn
2e
1d
1cn
1ccn
=10
1.a
2fn
1g
2fn
2e
=11
[0d
1.d]}
==
!!!AGN: Romanze, Ballade, Lied, religioeses Lied
!! Beuttner 1602 II No. 13. Variante von A0516.
!!!ONB: ESAC (Essen Associative Code) Database: ALTDEU
!!!AMT: simple quadruple
!!!AIN: vox
!!!EED: Helmut Schaffrath
!!!EEV: 1.0
*-
